X:1
T:Wearin' of the Green
M:4/4
L:1/8
K:C
 z4 z2 zC/2-D/2| EE E3/2E/2-E/2 E3/2 G E/2E/2| ED D3/2 E/2 D3 G/2G/2|\
 AG cBA-G EC|D-C C3/2 D/2 C3 C/2D/2| EE EEE-G GE| ED D/2 E3/2 D3 G/2G/2|\
 AG cBA-G EC| D/2 C3/2 C3/2 D/2 C3c/2-B/2| AG GE G/2- G3/2- GC/2-D/2|\
 E/2 D3/2 E/2 F3/2 G3 G| AG cB AG EC| ED DC D3C/2-D/2| E/2 E3/2 EEE-GG-E|\
 ED DC D3 G| AG cB AG EC| DC CD C3 z|
